!!!!SEGMENT: 025-1b-LE-002.krn
!!!COM: Chopin, Fryderyk
!!!OTL: 2me. ƒTUDE.
!!!OPS: Op. 25
!!!PTL: Etudes pour le Piano
!!!PPR: Lemoine
!!!PPP: Paris
!!!NIFC-rismID: 1001002372
!!!NIFC-shelfmark: PL-Wbfc 4808/n
!!!OMD: [half] = 112
!!!OMD: Presto.
**kern	**kern	**dynam
*part1	*part1	*part1
*staff2	*staff1	*
*clefF4	*clefG2	*
*k[b-e-a-d-]	*k[b-e-a-d-]	*
*f:	*f:	*
*M4/4	*M4/4	*
*met(c)	*met(c)	*
*MM224	*MM224	*
!	!LO:TX:i:t= molto legato:rj	!LO:DY:rj
4r	(>4cc	p
=1	=1	=1
!LO:TX:a:t=P:note-head-side tuplet number:problem	!LO:TX:a:t=P:note-head-side tuplet number:problem	!
(>6En	12ccL	.
.	12dd-	.
6g	12bnJ	.
.	12ccL	.
6c)	12ee-	.
.	12dd-J	.
(>6B-X	12ccL	.
.	12dd-	.
6g	12bJ	.
.	12ccL	.
6c)	12ff#X	.
.	12ggJ	.
=2	=2	=2
*Xtuplet	*Xtuplet	*
(>6F	12ccL	.
.	12dd-	.
6a-	12bnJ	.
.	12ccL	.
6c)	12ee-	.
.	12dd-J	.
(>6A-	12ccL	.
.	12dd-	.
6a-	12bJ	.
.	12ccL	.
6c)	12aa-	.
.	12ffJ	.
*clefG2	*	*
=3	=3	=3
(<6G	12eenL	<
.	12ff	.
6b-/	12eeJ	.
.	12dd#XL	.
6en)	12ee	.
.	12ggJ	.
(<6d-X	12bb-L	.
.	12ccc	.
6b-/	12bb-J	.
.	12aanL	.
6e)	12bb-	.
.	12ddd-XJ	[
=4	=4	=4
(<6A-	12cccL	>
.	12ddd-	.
6a-	12cccJ	.
.	12bbnL	.
6f)	12ccc	.
.	12ggJ	.
(<6c	12aa-L	.
.	12bb	.
6a-	12aa-J	.
.	12ggL	.
6f)	12aa-	.
.	12eenJ	]
*clefF4	*	*
!!LO:LB:g=original
=5	=5	=5
*ped	*	*
(>6BB-\	12ffL	.
.	12gg	.
6d-	12ffJ	.
.	12eenL	.
6G)	12ff	.
*Xped	*	*
.	12ccJ	.
(>6F	12dd-L	.
.	12ee-X	.
6d-	12dd-J	.
.	12ccL	.
6G)	12dd-	.
.	12bnJ	.
=6	=6	=6
(>6C\	12ccL	.
.	12dd-	.
6c	12ccJ	.
.	12bnL<	.
6A-)	12cc	.
.	12gJ	.
(>6F	12a-L	.
.	12b-X	.
6c	12a-J	.
.	12gL	.
6A-)	12a-	.
.	12fJ	.
=7	=7	=7
*ped	*	*
(>6C\	12enL	<
.	12g	.
6en	12b-J	.
.	12dd-L	.
6B-)	12een	.
.	12ggJ	.
(>6G	12bb-L	.
.	12ddd-	.
6e	12cccJ	.
.	12bb-L	.
*Xped	*	*
6B-)	12aa-	.
.	12ggJ	[
=8	=8	=8
(>6F	12bb-L	>
.	12ccc	.
6f	12aa-J	.
.	12ggL	.
6c)	12aa-	.
.	12ffJ	.
(>6A-	12eenL	.
.	12gg	.
6f	12ffJ	.
.	12eeL	.
6d-)	12ff	.
.	12dd-XJ	]
!!LO:LB:g=original
=9	=9	=9
(>6En	12ccL	.
.	12dd-	.
6g	12bnJ	.
.	12ccL	.
6c)	12ee-	.
.	12dd-J	.
(>6B-	12ccL	.
.	12dd-	.
6g	12bJ	.
.	12ccL	.
6c)	12ff#X	.
.	12ggJ	.
=10	=10	=10
(>6F	12ccL	.
.	12dd-	.
6a-	12bnJ	.
.	12ccL	.
6c)	12ee-	.
.	12dd-J	.
(>6A-	12ccL	.
.	12dd-	.
6a-	12bJ	.
.	12ccL	<
6c)	12aa-	.
.	12ffJ	.
*clefG2	*	*
=11	=11	=11
*	*ped	*
(<6G	12ee-L	.
.	12ff	.
6b-/	12ee-J	.
.	12ddnL	.
6e-)	12ee-	.
.	12ggJ	.
(<6d-X	12bb-L	.
.	12ccc	.
6b-/	12bb-J	.
.	12aanL	.
6e-)	12bb-	.
*	*Xped	*
.	12fffJ	[
=12	=12	=12
*	*ped	*
(<6A-	12eee-L	.
.	12fff	.
6a-	12eee-J	.
.	12dddnL	.
6e-)	12eee-	.
.	12bbnJ	>
(<6c	12cccL	.
.	12ddd-X	.
6a-	12cccJ	.
*	*Xped	*
.	12bbL	.
6e-)	12ccc	.
.	12ggJ	]
*clefF4	*	*
!!LO:LB:g=original
=13	=13	=13
*ped	*	*
(>6D-	12aa-L	>
.	12bb-	.
6f	12aa-J	.
.	12ggL	.
6B-)	12aa-	.
.	12eenJ	.
(>6A-	12ffL	.
.	12gg	.
6f	12ffJ	]
.	12eeL	.
6B-)	12ff	.
*Xped	*	*
.	12dd-J	.
=14	=14	=14
(>6E-	12cc/L	.
.	12dd-	.
6e-	12b-J	.
.	12gL	.
6c)	12a-	.
.	12b-J	<
(>6A-	12ccL	.
.	12dd-	.
6e-	12ee-J	.
.	12ffL	.
6c)	12gg	.
.	12aa-J	[
=15	=15	=15
(>6E-	12ggL	>
.	12aa-	.
6e-	12ffJ	.
.	12ee-L	.
6d-)	12ff	.
.	12dd-J	.
(>6G	12cc/L	.
.	12dd-	.
6e-	12b-J	]
.	12ccL	.
6d-)	12f	.
.	12gJ	.
=16	=16	=16
*ped	*	*
(>6AA-	12a-L	.
.	12b-	.
6c	12a-J	.
.	12gL	.
*Xped	*	*
6E-)	12a-	.
.	12anJ	.
(>6F-X^<	12b-/L	.
.	12cc	.
6d-	12b-J	.
.	12ccL	.
6E-)	12fny	.
.	12gJ	.
!!LO:LB:g=original
=17	=17	=17
*ped	*	*
(>6AA-	12a-L	.
.	12b-	.
6c	12a-J	.
.	12gL	.
*Xped	*	*
6E-)	12a-	.
.	12anJ	.
(>6F-X^<	12b-L	.
.	12cc/	.
6d-	12b-J	.
.	12ccL	.
6E-)	12fny	.
.	12gJ	.
=18	=18	=18
*ped	*	*
(>6AA-	12a-L	.
.	12b-	.
6c	12a-J	.
.	12gL	.
*Xped	*	*
6E-)	12a-	.
.	12b-J	.
*ped	*	*
(>6C	12ccL	.
.	12dd-	.
6G	12ccJ	.
.	12bnL	.
6B-	12cc	.
.	12dd-J	.
=19	=19	=19
*Xped	*	*
4en)	12ccL	.
.	12dd-	.
.	12ccJ	.
4r	12bnL	.
.	12cc	.
.	12dd-J	.
2r	12ccL	>
.	12dd-	.
.	12ccJ	.
.	12dd-L	.
.	12cc	.
.	12dd-J)	.
=20	=20	=20
(>6En	(>12ccL	.
.	12dd-	.
6g	12bnJ	.
.	12ccL	.
6c)	12ee-	.
.	12dd-J	.
(>6B-	12ccL	.
.	12dd-	.
6g	12bJ	.
.	12ccL	.
6c)	12ff#X	.
.	12ggJ	.
!!LO:LB:g=original
=21	=21	=21
(>6F	12ccL	.
.	12dd-	.
6a-	12bnJ	.
.	12ccL	.
6c)	12ee-	.
.	12dd-J	.
(>6A-	12ccL	.
.	12dd-	.
6a-	12bJ	.
.	12ccL	.
6c)	12aa-	.
.	12ffJ	.
*clefG2	*	*
=22	=22	=22
(<6G	12eenL	<
.	12ff	.
6b-/	12eeJ	.
.	12dd#XL	.
6en)	12ee	.
.	12ggJ	.
6d-	12bb-L	.
.	12ccc	.
6b-/	12bb-J	.
.	12aanL	.
6e	12bb-	.
.	12ddd-XJ	[
=23	=23	=23
(<6A-	12cccL	.
.	12ddd-	.
6a-	12cccJ	.
.	12bbnL	>
6f)	12ccc	.
.	12ggJ	.
(<6c	12aa-L	.
.	12bb-X	.
6a-	12aa-J	.
.	12ggL	.
6f)	12aa-	.
.	12eenJ	.
*clefF4	*	*
=24	=24	=24
*ped	*	*
(>6BB-\	12ffL	.
.	12gg	.
6d-	12ffJ	.
.	12eenL	.
6G)	12ff	.
*Xped	*	*
.	12ccJ	.
(>6F	12dd-L	.
.	12ee-X	.
6d-	12dd-J	.
.	12ccL	.
6G)	12dd-	.
.	12bnJ	]
!!LO:PB:g=original
=25	=25	=25
(>6C\	12ccL	.
.	12dd-X	.
6c	12ccJ	.
.	12bnL<	.
6A-)	12cc	.
.	12gJ	.
(>6F	12a-L	.
.	12b-y	.
6c	12a-J	.
.	12gL	.
6A-)	12a-	.
.	12fJ	.
=26	=26	=26
*ped	*	*
(>6C\	12enL	<
.	12g	.
6en	12b-J	.
.	12dd-L	.
6B-)	12een	.
.	12ggJ	.
(>6G	12bb-L	.
.	12ddd-	.
*Xped	*	*
6e	12cccJ	.
.	12bb-L	.
6B-)	12aa-	.
.	12ggJ	[
=27	=27	=27
(>6F	12bb-L	>
.	12ccc	.
6f	12aa-J	.
.	12ggL	.
6c)	12aa-	.
.	12ffJ	.
(>6A-	12eenL	.
.	12gg	.
6f	12ffJ	.
.	12eeL	.
6d-)	12ff	.
.	12dd-J	]
=28	=28	=28
(>6En	12ccL	.
.	12dd-	.
6g	12bnJ	.
.	12ccL	.
6c)	12ee-	.
.	12dd-J	.
(>6B-	12ccL	.
.	12dd-	.
6g	12bJ	.
.	12ccL	.
6c)	12ff#X	.
.	12ggJ	.
!!LO:LB:g=original
=29	=29	=29
(>6F	12ccL	.
.	12dd-	.
6a-	12bnJ	.
.	12ccL	.
6c)	12ee-	.
.	12dd-J	.
(>6A-	12ccL	.
.	12dd-	.
6a-	12bJ	.
.	12ccL	.
6c)	12aa-	.
.	12ffJ	.
*clefG2	*	*
=30	=30	=30
*	*ped	*
(<6G	12ee-L	<
.	12ff	.
6b-/	12ee-J	.
.	12ddnL	.
6e-)	12ee-	.
.	12ggJ	.
(<6d-	12bb-L	.
.	12ccc	.
6b-/	12bb-J	.
.	12aanL	.
6e-)	12bb-	.
*	*Xped	*
.	12fffJ	.
=31	=31	=31
(<6A-	12eee-L	.
.	12fff	.
6a-	12eee-J	[
.	12dddnL	.
6e-)	12eee-	.
.	12bbnJ	.
(<6c	12cccL	>
.	12ddd-X	.
6a-	12cccJ	.
.	12bbL	.
6e-)	12ccc	.
.	12ggJ	.
*clefF4	*	*
=32	=32	=32
*ped	*	*
(>6D-	12aa-L	.
.	12bb-	.
6f	12aa-J	.
.	12ggL	.
6B-)	12aa-	.
.	12eenJ	.
(>6A-	12ffL	.
.	12gg	.
6f	12ffJ	]
.	12eeL	.
6B-)	12ff	.
*Xped	*	*
.	12dd-J	.
!!LO:LB:g=original
=33	=33	=33
(>6E-	12cc/L	.
.	12dd-	.
6e-	12b-J	.
.	12gL	.
6c)	12a-	.
.	12b-J	.
(>6A-	12ccL	.
.	12dd-	.
6e-	12ee-J	.
.	12ffL	.
6c)	12gg	.
.	12aa-J	.
=34	=34	=34
(>6E-	12ggL	>
.	12aa-	.
6e-	12ffJ	.
.	12ee-L	.
6d-)	12ff	.
.	12dd-J	.
(>6G	12ccL	.
.	12dd-/	.
6e-	12b-J	.
.	12ccL	]
6d-)	12f	.
.	12gJ	.
!!LO:PB:g=original
=35	=35	=35
*ped	*	*
(>6AA-	12a-L	.
.	12b-	.
6c	12a-J	.
.	12gL	.
6E-)	12a-	.
*Xped	*	*
.	12anJ	.
(>6F-X^<	12b-/L	.
.	12cc	.
6d-	12b-J	.
.	12ccL	.
6E-)	12fny	.
.	12gJ	.
=36	=36	=36
*ped	*	*
!	!LO:TX:b:i:t=poco a poco:dur=3q:problem:text with extention lines	!
(>6AA-	12a-L	.
.	12b-	.
6c	12a-J	.
.	12gL	.
*Xped	*	*
6E-)	12a-	.
.	12anJ	.
(>6F-X^<	12b-L	.
.	12cc/	.
6d-	12b-J	.
.	12ccL	.
6E-)	12fny	.
.	12gJ	.
=37	=37	=37
(>6AA-	12a-L	.
.	12b-	.
6c	12a-J	.
.	12gL	.
6E-)	12a-	.
.	12b-J	.
*ped	*	*
(>6GG-X	12ccL	<
.	12dd-/	<
6e-	12ccJ	.
.	12bnL	.
6B-)	12cc/	.
.	12dd-J	[[
!!LO:LB:g=original
=38	=38	=38
(>6G-X	12ee-L	.
.	12ff	.
6e-	12ee-J	.
.	12ffL	>
*Xped	*	*
6B-)	12ee-	.
.	12dd-J	.
(>6F	12ccL	.
.	12dd-	.
6e-	12ccJ	.
.	12dd-\L	]
6An)	12g	.
.	12anJ	.
=39	=39	=39
*ped	*	*
(>6BB-	12b-L	.
.	12cc	.
6d-	12b-J	.
.	12anL	.
*Xped	*	*
6F)	12b-\	.
.	12bnJ	.
!	!LO:TX:Bi:b:t=Cres _ cendo:dur=6q:ext=ud:problem:text with extention lines	!
!	!	!LO:HP:b:Bi:t=Cres:ext=ud
(>6G-X^<	12ccL	<
.	12dd-	.
6e-	12ccJ	.
.	12dd-\L	.
6F)	12g	.
.	12aJ	.
=40	=40	=40
*ped	*	*
(>6BB-	12b-L	.
.	12cc	.
6d-	12b-J	.
.	12anL	.
*Xped	*	*
6F)	12b-\	.
.	12bnJ	.
(>6G-X^<	12ccL	.
.	12dd-	.
6e-	12ccJ	.
.	12dd-L	.
6F)	12g	.
.	12aJ	[[
=41	=41	=41
(>6BB-	12b-L	.
.	12cc	.
6d-	12b-J	.
.	12anL	<
6F)	12b-	.
.	12ccJ	.
*ped	*	*
(>6AA-	12ddnL	.
.	12ee-	.
6c	12ddJ	.
.	12cc#XL	.
6F)	12dd	.
.	12ee-J	[
!!LO:LB:g=original
=42	=42	=42
(>6Dn	12ffL	.
.	12gg	.
6c	12ffJ	.
.	12ggL	.
6F)	12ff	>
*Xped	*	*
.	12ee-J	.
(>6GG	12ddnL	.
.	12ee-	.
6Bn	12ddJ	.
.	12ee-L	.
6F)	12an	.
.	12bnJ	]]
=43	=43	=43
*ped	*	*
!	!	!LO:DY:rj
(>6C\	12ccL	f
.	12dd-X	.
6en	12ccJ	.
*Xped	*	*
.	12bnL	.
6B-)	12cc	.
.	12ggJ	.
(>6A-	12aa-L	.
.	12bb-X	.
6f	12aa-J	.
.	12ggL	>
6c)	12aa-	.
.	12eenJ	.
=44	=44	=44
(>6C\	12ffL	.
.	12gg	.
6d-	12ffJ	.
.	12ee-XL	.
6A-)	12dd-	.
.	12ccJ	.
(>6F	12b-L	.
.	12a	.
6d-	12gJ	]
.	12fL	.
6A-)	12g	.
.	12aJ	.
=45	=45	=45
(>6C\	12gL	p
.	12dd-	.
6en	12ccJ	.
.	12bnL	.
6B-X)	12cc	.
.	12ggJ	.
(>6A-	12aa-L	.
.	12bb-X	.
6f	12aa-J	.
.	12ggL	.
6c)	12aa-	.
.	12eenJ	.
!!LO:LB:g=original
=46	=46	=46
(>6C\	12ffL	.
.	12gg	.
6d-	12ffJ	.
.	12ee-XL	.
6A-)	12dd-	.
.	12ccJ	.
(>6F	12b-L	.
.	12a-	.
6d-	12gJ	.
.	12fL	.
6A-)	12g	.
.	12a-J	.
=47	=47	=47
(>6C\	12gL	.
.	12gg	.
6en	12ffJ	.
.	12eenL	.
6G)	12dd-	.
.	12ccJ	.
(>6F	12b-L	.
.	12a-	.
6d-	12gJ	.
!	!LO:TX:i:b:t=smorz	!
.	12fL	.
6A-)	12g	.
.	12a-J	.
=48	=48	=48
(>6C\	12gL	.
.	12gg	.
6en	12ffJ	.
.	12eenL	.
6G)	12dd-	.
.	12ccJ	.
(>6F	12b-L	.
.	12a-	.
6d-	12gJ	.
.	12fL	.
6A-)	12g	.
.	12a-J	.
=49	=49	=49
*ped	*	*
(>6C\	12gL	.
.	12dd-	.
6G	12ccJ	.
.	12bnL	.
6en)	12cc	<
.	12dd-J	.
2r	12ccL	.
.	12dd-	.
.	12ccJ	.
.	12bL	.
.	12cc	.
.	12dd-J	.
=50	=50	=50
1rF	12ccL	.
.	12dd-	.
.	12ccJ	[
.	12bnL	>
.	12cc	.
.	12dd-J	.
.	12ccL	.
.	12dd-	.
.	12ccJ	.
.	12dd-L	.
.	12cc	.
*Xped	*	*
.	12dd-J	]
!!LO:PB:g=original
=51	=51	=51
!	!LO:TX:i:a:t=sempre piano	!
(>6En	12ccL	.
.	12dd-	.
6g	12bnJ	.
.	12ccL	.
6c)	12ee-	.
.	12dd-J	.
(>6B-	12ccL	.
.	12dd-	.
6g	12bJ	.
.	12ccL	.
6c)	12ff#X	.
.	12ggJ	.
=52	=52	=52
(>6F	12ccL	.
.	12dd-	.
6a-	12bnJ	.
.	12ccL	.
6c)	12ee-	.
.	12dd-J	.
(>6A-	12ccL	.
.	12dd-	.
6a-	12bJ	.
.	12ccL	.
6c)	12aa-	.
.	12ffJ	.
*clefG2	*	*
=53	=53	=53
(<6G	12eenL	<
.	12ff	.
6b-/	12eeJ	.
.	12dd#XL	.
6en)	12ee	.
.	12ggJ	.
(<6d-	12bb-L	.
.	12ccc	.
6b-/	12bb-J	.
.	12aanL	.
6e)	12bb-	.
.	12ddd-XJ	[
=54	=54	=54
(<6A-	12cccL	.
.	12ddd-	.
6a-	12cccJ	.
.	12bbnL	>
6f)	12ccc	.
.	12ggJ	.
(<6c	12aa-L	.
.	12bb-X	.
6a-	12aa-J	.
.	12ggL	.
6f)	12aa-	.
.	12eenJ	.
*clefF4	*	*
!!LO:LB:g=original
=55	=55	=55
*ped	*	*
(>6BB-\	12ffL	.
.	12gg	.
6d-	12ffJ	.
.	12eenL	.
*Xped	*	*
6G)	12ff	.
.	12ccJ	.
(>6F	12dd-L	.
.	12ee-X	.
6d-	12dd-J	.
.	12ccL	.
6G)	12dd-	]
.	12bnJ	.
=56	=56	=56
(>6C\	12ccL	.
.	12dd-	.
6c	12ccJ	.
.	12b-L<	.
6A-)	12cc	.
.	12gJ	.
(>6F	12a-L	.
.	12b-\	.
6c	12a-J	.
.	12g\L	.
6A-)	12a-	.
.	12fJ)	.
=57	=57	=57
*ped	*	*
(>6C\	(>12enL	<
.	12g	.
6en	12b-J	.
.	12dd-L	.
6B-)	12een	.
.	12ggJ	.
(>6G	12bb-L	.
.	12ddd-)	.
*Xped	*	*
6e	(>12ccc'>J	[
.	12bb-'>L	.
6B-)	12aa-'>	.
.	12gg'>J)	.
=58	=58	=58
(>6F	(>12bb-L	>
.	12ccc	.
6f	12aa-J	.
.	12ggL	.
6c)	12aa-	.
.	12ffJ	.
(>6A-	12eenL	.
.	12gg	.
6f	12ffJ	.
.	12eeL	.
6d-X)	12ff	.
.	12dd-J	]
!!LO:LB:g=original
=59	=59	=59
(>6En	12ccL	.
.	12dd-	.
6g	12bnJ	.
.	12ccL	.
6c)	12ee-	.
.	12dd-J	.
(>6B-	12ccL	.
.	12dd-	.
6g	12bJ	.
.	12ccL	.
6c)	12ff#X	.
.	12ggJ	.
=60	=60	=60
(>6F	12ccL	.
.	12dd-	.
6a-	12bnJ	.
.	12ccL	.
6c)	12ee-	.
.	12dd-J	.
(>6A-	12ccL	.
.	12dd-	.
6a-	12bJ	.
.	12ccL	.
6c)	12aa-	.
.	12ffJ	.
*clefG2	*	*
=61	=61	=61
(<6G	12eenL	<
.	12ff	.
6b-/	12eeJ	.
.	12dd#XL	.
6en)	12ee	.
.	12ggJ	.
(<6d-	12bb-L	.
.	12ccc	.
6b-/	12bb-J	.
.	12aanL	.
6e)	12bb-	.
.	12ddd-J	[
=62	=62	=62
*	*8va	*
*	*ped	*
(<6A-	12cccL	.
.	12aaa-	.
6a-	12gggJ	.
.	12ggg-XL	.
6f)	12fff	.
.	12eeenJ	.
*	*X8va	*
!	!LO:TX:a::t=Loco	!
(<6c	12eee-XL	.
.	12dddn	.
6a-	12ddd-XJ	.
.	12cccL	.
6f)	12ccc-X	.
*	*Xped	*
.	12bb-J	.
*clefF4	*	*
!!LO:LB:g=original
=63	=63	=63
*ped	*	*
(>6BB-	12aanL	.
.	12aa-X	.
6d-	12ggJ	.
.	12fffL	>
6G)	12ddd-	.
.	12bb-J	.
(>6F	12ggL	.
.	12ff	.
6d-	12dd-J	.
.	12b-L	]
6G)	12g	.
*Xped	*	*
.	12dd-J	.
=64	=64	=64
*ped	*	*
(>6C	12ccL	.
.	12dd-	.
6f	12bnJ	.
.	12ccL	.
6c)	12a-	.
*Xped	*	*
.	12b-XJ	.
(>6A-	12ccL	.
.	12dd-	.
6f	12ccJ	.
.	12dd-L	.
6d-)	12ff	.
.	12ee-J	.
=65	=65	=65
(>6C\	12ccL	.
.	12dd-	.
6e-	12b-J	.
.	12ccL	.
6G)	12ee-	.
.	12dd-J	.
(>6F	12b-L	.
.	12cc	.
6d-	12a-J	.
.	12b-L	.
6En)	12dd-	.
.	12ccJ	.
!!LO:LB:g=original
=66	=66	=66
*ped	*	*
(>6F	12f^>L	.
.	12ccc	.
6a-	12bb-J	.
.	12aa-L	.
*Xped	*	*
6c)	12gg	.
.	12ffJ	.
(>6B-	12ee-L	.
.	12dd-	.
6g	12ccJ	.
.	12b-L	>
6d-)	12cc	.
.	12dd-J	.
=67	=67	=67
*ped	*	*
(>6F	12ccL	.
.	12ccc	.
6a-	12bb-J	.
.	12aa-L	.
*Xped	*	*
6c)	12gg	.
.	12ffJ	.
(>6B-	12ee-L	.
.	12dd-	.
6g	12ccJ	.
.	12b-L	.
6d-)	12cc	.
.	8qee-/	.
.	12dd-J	.
.	8qcc/	.
=68	=68	=68
*	*^	*
*ped	*	*	*
[>1c: [<1F:	2cc:	[>1a-: [<1f:	pp
.	4cc	.	.
.	4cc	.	.
*	*v	*v	*
=69	=69	=69
1c;>] 1F]	1cc 1a-] 1f;])	.
!	!LO:TX:b:B:a:t=FINE	!
*Xped	*	*
==	==	==
*-	*-	*-
!!title: @{OTL}; @{OPS} @{ONM} publisher: @{PPR}
!!!RDF**kern: > = above
!!!RDF**kern: < = below
!!!RDF**kern: N = linked
!!!RDF**dynam: > = "dim"
!!!RDF**dynam: < = "Cresc"
!!!ENC: Mateusz Mrugas
!!!END: 2018-10-02
!!!EED: Tomasz Sierawski
!!!EST: 2018-10-17
!!!EED2: Wojciech Jakubiak-Danek
!!!EST2: 2019-10-13
!!!rism-genre: Etude
!!!rism-key: F minor
!!!rism-opus: op. 25, no. 2
!!!rism-title: Etude in F minor op. 25, no. 2
!!!rism-permalink: https://opac.rism.info/search?id=1001002372&View=rism
!!!rism-773a-OPR: 1001002277
!!!rism-parent-permalink: https://opac.rism.info/search?id=1001002277&View=rism
